X: 38203
T: Spring The Summer Long
R: strathspey
M: 4/4
K: Fmajor
"F"F3F G2A2|"Dm"f3e "Bb"dc3|"F"c2A2 "Dm"f2A2|"Gm"G3F "C"GA3|
[1"F"F3F G2A2|"Dm"f3g a3g|"Gm"fA3 G3F|"C"G8:|
[2"F"F3F G2A2|"Dm"f3g "Am"a3g|"Bb"fA3 "C"G3F|"F"F8||
"Dm"f4 f3e|"Bb"d3c df3|"F"c2A2 "Dm"f2c2|"Gm"d3G "C"AG3|
"Dm"f4 "Dm/C"f3e|"Bb"d2c2 f3g|"C"a3g "C7"fe3|"F"f8|
"Dm"f4 f3e|"Bb"d3c "Gm"dg3|"Bb"fd3 "F/A"c2A2|"Gm"d3G "C"AG3|
"F"F3F G2A2|"Dm"f3g "Am"a3g|"Bb"fA3 "C"G3" 2:"" 1:"F|"F""Bb"F8||

